X:22
T:Polonäs i Dm efter Daniel Danielsson
B:Daniel Danielssons notbok, nr 22
B:http://www.smus.se/earkiv/fmk/browselarge.php?lang=sw&katalogid=MMD+47&bildnr=00008
O:Södra gården, Härjedalen
Z:Nils L
R:Slängpolska
M:3/4
L:1/16
K:Dm
A2>d2 d2cd e2>g2 | f2ed e2>c2 A2>c2 | B2AG A2F2 E2^C2 | D2EF E4 D4 ::
c4 c2d2 c2B2 | A2G2 F2E2 F4 | F2A2 d2f2 e2d2 | c2d2 edcB A4 |
A2d2 d2c2 c2A2 | B2AG A2F2 F2A2 | B2AG A2F2 E2C2 | D2EF E4 D4 :|

